libs/ui/packages/crypto-icons/src/svg/KLAY.svg

<svg width="24" height="24" viewBox="0 0 24 24" fill="none">
  <path d="M17.1252 5.89834C15.7209 4.73341 14.0102 4.12142 12.2824 4.06124L8.20339 14.758L17.1252 5.89834Z" fill="#000000" fill-rule="nonzero" opacity="1" stroke="none"/>
  <path d="M18.1429 6.91L13.0187 11.9978L18.1417 17.0845C20.6175 14.146 20.6175 9.84957 18.1429 6.91Z" fill="#000000" fill-rule="nonzero" opacity="1" stroke="none"/>
  <path d="M10.2778 5.28184L4.01702 11.4982C3.89467 13.4443 4.48816 15.4256 5.80093 17.0197L10.2778 5.28184Z" fill="#000000" fill-rule="nonzero" opacity="1" stroke="none"/>
  <path d="M12.0001 13.0083L6.87601 18.0961C9.8366 20.5532 14.1637 20.5532 17.1231 18.095L12.0001 13.0083Z" fill="#000000" fill-rule="nonzero" opacity="1" stroke="none"/>
</svg>

<svg width="24" height="24" viewBox="0 0 24 24" fill="none"><path fill="#000" d="M17.125 5.898a8 8 0 0 0-4.843-1.837L8.203 14.758zm1.018 1.012-5.124 5.088 5.123 5.086a7.9 7.9 0 0 0 0-10.174m-7.864-1.628-6.261 6.216a7.9 7.9 0 0 0 1.784 5.522zM12 13.008l-5.124 5.088a8.04 8.04 0 0 0 10.247-.001z"/></svg>
